Skins/royal-surge.surge-skin/assets/bmp00140.svg

<?xml version="1.0" encoding="UTF-8" standalone="no"?>
<svg
   xmlns:dc="http://purl.org/dc/elements/1.1/"
   xmlns:cc="http://creativecommons.org/ns#"
   xmlns:rdf="http://www.w3.org/1999/02/22-rdf-syntax-ns#"
   xmlns:svg="http://www.w3.org/2000/svg"
   xmlns="http://www.w3.org/2000/svg"
   xmlns:xlink="http://www.w3.org/1999/xlink"
   xmlns:sodipodi="http://sodipodi.sourceforge.net/DTD/sodipodi-0.dtd"
   xmlns:inkscape="http://www.inkscape.org/namespaces/inkscape"
   width="12"
   height="24"
   viewBox="0 0 12 24.000001"
   version="1.1"
   id="svg35664"
   sodipodi:docname="bmp00140.svg"
   inkscape:version="1.0.1 (3bc2e813f5, 2020-09-07)">
  <metadata
     id="metadata35668">
    <rdf:RDF>
      <cc:Work
         rdf:about="">
        <dc:format>image/svg+xml</dc:format>
        <dc:type
           rdf:resource="http://purl.org/dc/dcmitype/StillImage" />
        <dc:title></dc:title>
      </cc:Work>
    </rdf:RDF>
  </metadata>
  <sodipodi:namedview
     pagecolor="#434343"
     bordercolor="#666666"
     borderopacity="1"
     objecttolerance="10"
     gridtolerance="10"
     guidetolerance="10"
     inkscape:pageopacity="0"
     inkscape:pageshadow="2"
     inkscape:window-width="3753"
     inkscape:window-height="2137"
     id="namedview35666"
     showgrid="false"
     inkscape:zoom="32"
     inkscape:cx="-3.0805104"
     inkscape:cy="21.528161"
     inkscape:window-x="-8"
     inkscape:window-y="-8"
     inkscape:window-maximized="1"
     inkscape:current-layer="svg35664"
     inkscape:document-rotation="0" />
  <defs
     id="defs35628">
    <linearGradient
       inkscape:collect="always"
       id="linearGradient39383">
      <stop
         style="stop-color:#6c6669;stop-opacity:1"
         offset="0"
         id="stop39379" />
      <stop
         style="stop-color:#645a5a;stop-opacity:1"
         offset="1"
         id="stop39381" />
    </linearGradient>
    <linearGradient
       id="a"
       x1="0.5"
       x2="0.5"
       y2="1"
       gradientUnits="objectBoundingBox">
      <stop
         offset="0"
         stop-color="#675d5d"
         id="stop35618" />
      <stop
         offset="1"
         stop-color="#5b4f51"
         id="stop35620" />
    </linearGradient>
    <linearGradient
       id="b"
       x1="0.5"
       x2="0.5"
       y2="1"
       gradientUnits="objectBoundingBox">
      <stop
         offset="0"
         stop-color="#373030"
         id="stop35623" />
      <stop
         offset="1"
         stop-color="#332a2b"
         id="stop35625" />
    </linearGradient>
    <linearGradient
       inkscape:collect="always"
       xlink:href="#linearGradient39383"
       id="linearGradient39385"
       x1="6.078125"
       y1="1.0625"
       x2="6.0614996"
       y2="10.9375"
       gradientUnits="userSpaceOnUse"
       gradientTransform="matrix(1.1201119,0,0,1.1199998,-0.72011186,-0.71999977)" />
  </defs>
  <rect
     width="12"
     height="12"
     rx="2"
     id="rect36676"
     x="0"
     y="0" />
  <rect
     width="12"
     height="12"
     rx="2"
     id="rect36678"
     x="0"
     y="12" />
  <rect
     width="11.2"
     height="11.2"
     rx="1.5178393"
     stroke="none"
     id="rect36680"
     x="0.40000001"
     y="0.40000001"
     style="fill:url(#linearGradient39385);fill-opacity:1;stroke-width:0.560028"
     ry="1.5749999" />
  <path
     d="M 10.072727,11.6 H 1.9272728 A 1.5272728,1.5098138 0 0 1 0.4,10.090186 V 9.6664318 A 1.5272728,1.5098138 0 0 0 1.9272728,11.097735 H 10.072727 A 1.5272728,1.5098138 0 0 0 11.6,9.6 v 0.490186 A 1.5272728,1.5098138 0 0 1 10.072727,11.6 Z"
     opacity="0.4"
     id="path36686"
     style="fill:#000000;fill-opacity:1;stroke:none;stroke-width:1.01235" />
  <path
     d="m 11.6,2.4 v 0 A 1.5272728,1.5052684 0 0 0 10.072727,0.90175615 H 1.9272728 A 1.5272728,1.5052684 0 0 0 0.4,2.3297541 V 1.9052684 A 1.5272728,1.5052684 0 0 1 1.9272728,0.4 H 10.072727 A 1.5272728,1.5052684 0 0 1 11.6,1.9052684 Z"
     fill="#ffffff"
     opacity="0.4"
     id="path36688"
     style="stroke-width:1.01082" />
  <rect
     width="9.9989996"
     height="10"
     rx="1"
     fill="#ffffff"
     opacity="0"
     id="rect36690"
     x="1"
     y="1" />
  <rect
     width="11.2"
     height="11.2"
     rx="1.7449999"
     stroke="none"
     id="rect36696"
     x="0.40000001"
     y="12.4"
     style="fill:#373030;fill-opacity:1;stroke-width:0.560001" />
  <path
     d="m 11.6,14.4 v 0 A 1.5272728,1.5052684 0 0 0 10.072727,12.901756 H 1.9272728 A 1.5272728,1.5052684 0 0 0 0.4,14.329754 V 13.905268 A 1.5272728,1.5052684 0 0 1 1.9272728,12.4 H 10.072727 A 1.5272728,1.5052684 0 0 1 11.6,13.905268 Z"
     fill="#ffffff"
     opacity="0.1"
     id="path36704"
     style="stroke-width:1.01081" />
  <rect
     width="10"
     height="10"
     rx="1"
     fill="#ffffff"
     opacity="0"
     id="rect36706"
     x="1"
     y="13" />
  <rect
     width="12"
     height="12"
     rx="1"
     fill="#ffffff"
     opacity="0"
     id="rect35640"
     x="0.5"
     y="0.5" />
  <rect
     width="12"
     height="12"
     rx="1"
     fill="#ffffff"
     opacity="0"
     id="rect35656"
     x="0.5"
     y="12.501" />
  <path
     d="M 9.0771609,5.6911575 7.1851389,7.0798487 C 6.6627832,7.4637775 5.9280174,7.351049 5.5447829,6.8281837 L 5.2749868,6.4457643 5.7577712,6.0827236 6.0121621,6.4097076 c 0.15115,0.2054718 0.5450673,0.3547648 0.7895327,0.2206293 L 8.7692807,5.1895122 C 8.9747523,5.0383628 8.9638414,4.6333974 8.8131329,4.4276025 L 8.2785572,3.7467691 C 8.1274082,3.5412973 7.8384521,3.4969654 7.6326565,3.6476744 L 7.0946872,3.9955548 C 6.8435177,3.8943038 6.4993435,3.7845113 6.3749735,3.7475507 L 7.2260675,3.1691371 C 7.7485503,2.7857248 8.4829138,2.8983916 8.8664244,3.4208023 L 9.329569,4.0518138 C 9.7121324,4.5743115 9.5991762,5.307937 9.0771609,5.6911575 Z M 5.3677526,7.6951605 4.84876,8.0151247 C 4.6448529,8.0988723 4.3910153,8.0272218 4.2414661,7.8229553 L 3.7731493,7.2048479 C 3.6231109,7.0009409 3.5842762,6.6366174 3.7885423,6.4870681 L 5.7648752,4.9882898 C 5.9689305,4.8388547 6.2554441,4.8828119 6.4053157,5.0865468 L 6.6823343,5.4274962 7.1669924,5.0474036 6.9745371,4.8086155 C 6.5910265,4.2862048 5.856664,4.1735382 5.3341812,4.5569505 L 3.4420244,5.9465199 C 2.919159,6.3297551 2.8064307,7.06452 3.1903593,7.5868763 l 0.4631456,0.6310116 c 0.3832344,0.5228653 1.1180003,0.6355938 1.640356,0.251665 L 6.0613477,7.9453693 C 5.9088303,7.8916187 5.5251545,7.7559855 5.3677526,7.6951605 Z"
     fill="#e2d6d1"
     fill-rule="evenodd"
     id="path38746"
     sodipodi:nodetypes="cccccccccccccccccccccccccccccccccc"
     style="stroke-width:0.88841" />
  <path
     d="m 9.0771609,17.691523 -1.892022,1.388691 c -0.5223557,0.383929 -1.2571215,0.2712 -1.640356,-0.251665 L 5.2749868,18.44613 5.7577712,18.083089 6.0121621,18.410073 c 0.15115,0.205472 0.5450673,0.354765 0.7895327,0.220629 l 1.9675859,-1.440824 c 0.2054716,-0.15115 0.1945607,-0.556115 0.043852,-0.76191 L 8.2785572,15.747134 C 8.1274082,15.541663 7.8384521,15.497331 7.6326565,15.64804 L 7.0946872,15.99592 C 6.8435177,15.894669 6.4993435,15.784877 6.3749735,15.747916 l 0.851094,-0.578414 c 0.5224828,-0.383412 1.2568463,-0.270745 1.6403569,0.251666 l 0.4631446,0.631011 c 0.3825634,0.522498 0.2696072,1.256123 -0.2524081,1.639344 z M 5.3677526,19.695526 4.84876,20.01549 c -0.2039071,0.08375 -0.4577447,0.0121 -0.6072939,-0.192169 L 3.7731493,19.205213 c -0.1500384,-0.203907 -0.1888731,-0.56823 0.015393,-0.71778 l 1.9763329,-1.498778 c 0.2040553,-0.149435 0.4905689,-0.105478 0.6404405,0.09826 l 0.2770186,0.34095 0.4846581,-0.380093 -0.1924553,-0.238788 C 6.5910265,16.28657 5.856664,16.173904 5.3341812,16.557316 l -1.8921568,1.389569 c -0.5228654,0.383235 -0.6355937,1.118 -0.2516651,1.640357 l 0.4631456,0.631011 c 0.3832344,0.522866 1.1180003,0.635594 1.640356,0.251665 L 6.0613477,19.945735 C 5.9088303,19.891984 5.5251545,19.756351 5.3677526,19.695526 Z"
     fill="#e2d6d1"
     fill-rule="evenodd"
     id="path40902"
     sodipodi:nodetypes="cccccccccccccccccccccccccccccccccc"
     style="stroke-width:0.88841;fill:#fce237;fill-opacity:1" />
</svg>

<?xml version="1.0" encoding="utf-8"?>
<svg width="12px" height="24px" viewBox="0 0 12 24" version="1.1" xmlns:xlink="http://www.w3.org/1999/xlink" xmlns="http://www.w3.org/2000/svg">
  <defs>
    <linearGradient x1="6.078125" y1="1.0625" x2="6.0614996" y2="10.9375" id="gradient_1">
      <stop offset="0" stop-color="#6C6669" />
      <stop offset="1" stop-color="#645A5A" />
    </linearGradient>
    <path d="M0 0L12 0L12 24L0 24L0 0Z" id="path_1" />
    <rect width="12" height="24" id="artboard_1" />
    <clipPath id="clip_1">
      <use xlink:href="#artboard_1" clip-rule="evenodd" />
    </clipPath>
    <clipPath id="mask_1">
      <use xlink:href="#path_1" />
    </clipPath>
  </defs>
  <g id="bmp00140" clip-path="url(#clip_1)">
    <path d="M0 0L12 0L12 24L0 24L0 0Z" id="Background" fill="none" fill-rule="evenodd" stroke="none" />
    <g clip-path="url(#mask_1)">
      <path d="M0 4L0 2C0 1.44772 0.195262 0.976311 0.585786 0.585786C0.976311 0.195262 1.44772 0 2 0L10 0C10.5523 0 11.0237 0.195262 11.4142 0.585786C11.8047 0.976311 12 1.44772 12 2L12 10C12 10.5523 11.8047 11.0237 11.4142 11.4142C11.0237 11.8047 10.5523 12 10 12L2 12C1.44772 12 0.976311 11.8047 0.585786 11.4142C0.195262 11.0237 0 10.5523 0 10L0 4Z" id="rect36676" fill="#000000" fill-rule="evenodd" stroke="none" />
      <path d="M0 16L0 14C0 13.4477 0.195262 12.9763 0.585786 12.5858C0.976311 12.1953 1.44772 12 2 12L10 12C10.5523 12 11.0237 12.1953 11.4142 12.5858C11.8047 12.9763 12 13.4477 12 14L12 22C12 22.5523 11.8047 23.0237 11.4142 23.4142C11.0237 23.8047 10.5523 24 10 24L2 24C1.44772 24 0.976311 23.8047 0.585786 23.4142C0.195262 23.0237 0 22.5523 0 22L0 16Z" id="rect36678" fill="#000000" fill-rule="evenodd" stroke="none" />
      <path d="M0.400002 3.54999L0.400002 1.97499C0.400002 1.54007 0.54819 1.16884 0.844566 0.861301C1.14094 0.553763 1.4987 0.399994 1.91784 0.399994L10.0822 0.399994C10.5013 0.399994 10.8591 0.553763 11.1554 0.861301C11.4518 1.16884 11.6 1.54007 11.6 1.97499L11.6 10.025C11.6 10.4599 11.4518 10.8311 11.1554 11.1387C10.8591 11.4462 10.5013 11.6 10.0822 11.6L1.91784 11.6C1.4987 11.6 1.14094 11.4462 0.844566 11.1387C0.54819 10.8311 0.400002 10.4599 0.400002 10.025L0.400002 3.54999Z" id="rect36680" fill="url(#gradient_1)" fill-rule="evenodd" stroke="none" />
      <path d="M10.0727 11.6L1.92727 11.6C1.08378 11.6 0.400001 10.924 0.400002 10.0902L0.400002 9.66644C0.442299 10.4695 1.11385 11.0988 1.92727 11.0977L10.0727 11.0977C10.9115 11.0978 11.5933 10.4291 11.6 9.60001L11.6 10.0902C11.6003 10.9235 10.9167 11.5997 10.0733 11.6L10.0727 11.6Z" id="path36686" fill="#000000" fill-opacity="0.4" fill-rule="evenodd" stroke="none" />
      <path d="M11.6 2.39999L11.6 2.39999C11.5961 1.57141 10.9135 0.901748 10.0727 0.90175L1.92727 0.90175C1.11348 0.900692 0.441776 1.52873 0.400002 2.32975L0.400002 1.90526C0.400002 1.07393 1.08379 0.399994 1.92727 0.399994L10.0727 0.399994C10.9162 0.399994 11.6 1.07393 11.6 1.90526L11.6 2.39999Z" id="path36688" fill="#FFFFFF" fill-opacity="0.4" fill-rule="evenodd" stroke="none" />
      <path d="M1 3L1 2C1 1.72386 1.09763 1.48816 1.29289 1.29289C1.48816 1.09763 1.72386 1 2 1L9.999 1C10.2751 1 10.5108 1.09763 10.7061 1.29289C10.9014 1.48816 10.999 1.72386 10.999 2L10.999 10C10.999 10.2761 10.9014 10.5118 10.7061 10.7071C10.5108 10.9024 10.2751 11 9.999 11L2 11C1.72386 11 1.48816 10.9024 1.29289 10.7071C1.09763 10.5118 1 10.2761 1 10L1 3Z" id="rect36690" fill="#FFFFFF" fill-opacity="0" fill-rule="evenodd" stroke="none" />
      <path d="M0.400002 15.89L0.400002 14.145C0.400002 13.6631 0.570368 13.2518 0.9111 12.9111C1.25183 12.5704 1.66313 12.4 2.145 12.4L9.855 12.4C10.3369 12.4 10.7482 12.5704 11.0889 12.9111C11.4296 13.2518 11.6 13.6631 11.6 14.145L11.6 21.855C11.6 22.3369 11.4296 22.7482 11.0889 23.0889C10.7482 23.4296 10.3369 23.6 9.855 23.6L2.145 23.6C1.66313 23.6 1.25183 23.4296 0.9111 23.0889C0.570368 22.7482 0.400002 22.3369 0.400002 21.855L0.400002 15.89Z" id="rect36696" fill="#373030" fill-rule="evenodd" stroke="none" />
      <path d="M11.6 14.4L11.6 14.4C11.5961 13.5714 10.9135 12.9017 10.0727 12.9018L1.92727 12.9018C1.11348 12.9007 0.441776 13.5287 0.400002 14.3297L0.400002 13.9053C0.400002 13.0739 1.08378 12.4 1.92727 12.4L10.0727 12.4C10.9162 12.4 11.6 13.0739 11.6 13.9053L11.6 14.4Z" id="path36704" fill="#FFFFFF" fill-opacity="0.1" fill-rule="evenodd" stroke="none" />
      <path d="M1 15L1 14C1 13.7239 1.09763 13.4882 1.29289 13.2929C1.48816 13.0976 1.72386 13 2 13L10 13C10.2761 13 10.5118 13.0976 10.7071 13.2929C10.9024 13.4882 11 13.7239 11 14L11 22C11 22.2761 10.9024 22.5118 10.7071 22.7071C10.5118 22.9024 10.2761 23 10 23L2 23C1.72386 23 1.48816 22.9024 1.29289 22.7071C1.09763 22.5118 1 22.2761 1 22L1 15Z" id="rect36706" fill="#FFFFFF" fill-opacity="0" fill-rule="evenodd" stroke="none" />
      <path d="M0.5 2.5L0.5 1.5C0.5 1.22386 0.597631 0.988155 0.792893 0.792893C0.988155 0.597631 1.22386 0.5 1.5 0.5L11.5 0.5C11.7761 0.5 12.0118 0.597631 12.2071 0.792893C12.4024 0.988155 12.5 1.22386 12.5 1.5L12.5 11.5C12.5 11.7761 12.4024 12.0118 12.2071 12.2071C12.0118 12.4024 11.7761 12.5 11.5 12.5L1.5 12.5C1.22386 12.5 0.988155 12.4024 0.792893 12.2071C0.597631 12.0118 0.5 11.7761 0.5 11.5L0.5 2.5Z" id="rect35640" fill="#FFFFFF" fill-opacity="0" fill-rule="evenodd" stroke="none" />
      <path d="M0.5 14.501L0.5 13.501C0.5 13.2249 0.597631 12.9892 0.792893 12.7939C0.988155 12.5986 1.22386 12.501 1.5 12.501L11.5 12.501C11.7761 12.501 12.0118 12.5986 12.2071 12.7939C12.4024 12.9892 12.5 13.2249 12.5 13.501L12.5 23.501C12.5 23.7771 12.4024 24.0129 12.2071 24.2081C12.0118 24.4034 11.7761 24.501 11.5 24.501L1.5 24.501C1.22386 24.501 0.988155 24.4034 0.792893 24.2081C0.597631 24.0129 0.5 23.7771 0.5 23.501L0.5 14.501Z" id="rect35656" fill="#FFFFFF" fill-opacity="0" fill-rule="evenodd" stroke="none" />
      <path d="M9.07716 5.69116L7.18514 7.07985C6.66278 7.46378 5.92802 7.35105 5.54478 6.82818L5.27499 6.44576L5.75777 6.08272L6.01216 6.40971C6.16331 6.61518 6.55723 6.76447 6.80169 6.63034L8.76928 5.18951C8.97475 5.03836 8.96384 4.6334 8.81313 4.4276L8.27856 3.74677C8.12741 3.5413 7.83845 3.49697 7.63266 3.64767L7.09469 3.99556C6.84352 3.8943 6.49934 3.78451 6.37497 3.74755L7.22607 3.16914C7.74855 2.78573 8.48291 2.89839 8.86642 3.4208L9.32957 4.05181C9.71213 4.57431 9.59918 5.30794 9.07716 5.69116L9.07716 5.69116ZM5.36775 7.69516L4.84876 8.01513C4.64485 8.09887 4.39101 8.02722 4.24147 7.82296L3.77315 7.20485C3.62311 7.00094 3.58428 6.63662 3.78854 6.48707L5.76487 4.98829C5.96893 4.83886 6.25544 4.88281 6.40531 5.08655L6.68233 5.4275L7.16699 5.0474L6.97454 4.80862C6.59103 4.28621 5.85666 4.17354 5.33418 4.55695L3.44202 5.94652C2.91916 6.32976 2.80643 7.06452 3.19036 7.58688L3.6535 8.21789C4.03674 8.74075 4.7715 8.85348 5.29386 8.46955L6.06135 7.94537C5.90883 7.89162 5.52515 7.75599 5.36775 7.69516L5.36775 7.69516Z" id="path38746" fill="#E2D6D1" fill-rule="evenodd" stroke="none" />
      <path d="M9.07716 17.6915L7.18514 19.0802C6.66278 19.4641 5.92802 19.3514 5.54478 18.8286L5.27499 18.4461L5.75777 18.0831L6.01216 18.4101C6.16331 18.6155 6.55723 18.7648 6.80169 18.6307L8.76928 17.1899C8.97475 17.0387 8.96384 16.6338 8.81313 16.428L8.27856 15.7471C8.12741 15.5417 7.83845 15.4973 7.63266 15.648L7.09469 15.9959C6.84352 15.8947 6.49934 15.7849 6.37497 15.7479L7.22607 15.1695C7.74855 14.7861 8.48291 14.8988 8.86642 15.4212L9.32957 16.0522C9.71213 16.5747 9.59918 17.3083 9.07716 17.6915L9.07716 17.6915ZM5.36775 19.6955L4.84876 20.0155C4.64485 20.0992 4.39101 20.0276 4.24147 19.8233L3.77315 19.2052C3.62311 19.0013 3.58428 18.637 3.78854 18.4874L5.76487 16.9887C5.96893 16.8392 6.25544 16.8832 6.40531 17.0869L6.68233 17.4279L7.16699 17.0478L6.97454 16.809C6.59103 16.2866 5.85666 16.1739 5.33418 16.5573L3.44202 17.9469C2.91916 18.3301 2.80643 19.0649 3.19036 19.5872L3.6535 20.2183C4.03674 20.7411 4.7715 20.8538 5.29386 20.4699L6.06135 19.9457C5.90883 19.892 5.52515 19.7564 5.36775 19.6955L5.36775 19.6955Z" id="path40902" fill="#FCE237" fill-rule="evenodd" stroke="none" />
    </g>
  </g>
</svg>
